src/2-landmarks/turnstile--active.svg

<svg width="1300" height="1000" fill="none" xmlns="http://www.w3.org/2000/svg"><path fill-rule="evenodd" clip-rule="evenodd" d="M1038 547c-8.28 0-15 6.716-15 15v338h-7V589.524L819.409 660.41c-2.146.774-4.409-.816-4.409-3.097a3.29 3.29 0 0 1 2.176-3.097L1016 582.524V567H818.5a3.5 3.5 0 1 1 0-7H1016c0-11.046 8.95-20 20-20h10v-35c0-2.761 2.24-5 5-5h72c23.58 0 43.1 17.363 46.48 40H1180c11.05 0 20 8.954 20 20v340h-7V562c0-8.284-6.72-15-15-15h-140Zm124.39-7c-3.31-18.754-19.69-33-39.39-33h-70v33h109.39Z" fill="#000"/><path fill-rule="evenodd" clip-rule="evenodd" d="M1061 570c-8.28 0-15 6.716-15 15v40c0 8.284 6.72 15 15 15h94c8.28 0 15-6.716 15-15v-40c0-8.284-6.72-15-15-15h-94Zm2 7c-5.52 0-10 4.477-10 10v36c0 5.523 4.48 10 10 10h90c5.52 0 10-4.477 10-10v-36c0-5.523-4.48-10-10-10h-90ZM601 900h7V562c0-8.284 6.716-15 15-15h140c8.284 0 15 6.716 15 15v338h7V560c0-11.046-8.954-20-20-20h-10.518c-3.38-22.637-22.903-40-46.482-40h-72a5 5 0 0 0-5 5v35h-10c-11.046 0-20 8.954-20 20H403.5a3.5 3.5 0 1 0 0 7H601v15.524l-198.824 71.692a3.29 3.29 0 0 0-2.176 3.097c0 2.281 2.263 3.871 4.409 3.097L601 589.524V900Zm37-360h109.39c-3.311-18.754-19.687-33-39.39-33h-70v33Z" fill="#000"/><path d="M0 793v7h330c4.963 0 9.504-1.808 13-4.801V900h7V560c0-11.046-8.954-20-20-20H0v7h328c8.284 0 15 6.716 15 15v216c0 8.284-6.716 15-15 15H0Zm1270 7c-4.96 0-9.5-1.808-13-4.801V900h-7V560c0-11.046 8.95-20 20-20h30v7h-28c-8.28 0-15 6.716-15 15v216c0 8.284 6.72 15 15 15h28v7h-30Z" fill="#000"/><path fill-rule="evenodd" clip-rule="evenodd" d="M620.121 583.942a3.001 3.001 0 0 1 0-4.243l27.577-27.577a3 3 0 0 1 4.243 0L669.819 570H740c8.284 0 15 6.716 15 15v40c0 8.284-6.716 15-15 15h-94c-8.284 0-15-6.716-15-15v-30.18l-10.879-10.878ZM638 623v-21.18l23.841 23.841a2.998 2.998 0 0 0 4.242 0l27.577-27.577a3 3 0 0 0 0-4.243L676.819 577H738c5.523 0 10 4.477 10 10v36c0 5.523-4.477 10-10 10h-90c-5.523 0-10-4.477-10-10Zm47.882-27.038-21.92 21.921-36.063-36.063 21.921-21.92 36.062 36.062Z" fill="#000"/><path d="M0 900h1300v100H0V900Z" fill="#000"/></svg>

<svg width="1300" height="1000" viewBox="0 0 1300 1000" fill="none" xmlns="http://www.w3.org/2000/svg">
<path fill-rule="evenodd" clip-rule="evenodd" d="M1038 547C1029.72 547 1023 553.716 1023 562V900H1016V589.524L819.409 660.41C817.263 661.184 815 659.594 815 657.313C815 655.925 815.87 654.686 817.176 654.216L1016 582.524V567H818.5C816.567 567 815 565.433 815 563.5C815 561.567 816.567 560 818.5 560H1016C1016 548.954 1024.95 540 1036 540H1046V505C1046 502.239 1048.24 500 1051 500H1123C1146.58 500 1166.1 517.363 1169.48 540H1180C1191.05 540 1200 548.954 1200 560V900H1193V562C1193 553.716 1186.28 547 1178 547H1038ZM1162.39 540C1159.08 521.246 1142.7 507 1123 507H1053V540H1162.39Z" fill="black"/>
<path fill-rule="evenodd" clip-rule="evenodd" d="M1061 570C1052.72 570 1046 576.716 1046 585V625C1046 633.284 1052.72 640 1061 640H1155C1163.28 640 1170 633.284 1170 625V585C1170 576.716 1163.28 570 1155 570H1061ZM1063 577C1057.48 577 1053 581.477 1053 587V623C1053 628.523 1057.48 633 1063 633H1153C1158.52 633 1163 628.523 1163 623V587C1163 581.477 1158.52 577 1153 577H1063Z" fill="black"/>
<path fill-rule="evenodd" clip-rule="evenodd" d="M601 900H608V562C608 553.716 614.716 547 623 547H763C771.284 547 778 553.716 778 562V900H785V560C785 548.954 776.046 540 765 540H754.482C751.102 517.363 731.579 500 708 500H636C633.239 500 631 502.239 631 505V540H621C609.954 540 601 548.954 601 560H403.5C401.567 560 400 561.567 400 563.5C400 565.433 401.567 567 403.5 567H601V582.524L402.176 654.216C400.87 654.686 400 655.925 400 657.313C400 659.594 402.263 661.184 404.409 660.41L601 589.524V900ZM638 540H747.39C744.079 521.246 727.703 507 708 507H638V540Z" fill="black"/>
<path d="M0 793V800H330C334.963 800 339.504 798.192 343 795.199V900H350V560C350 548.954 341.046 540 330 540H0V547H328C336.284 547 343 553.716 343 562V778C343 786.284 336.284 793 328 793H0Z" fill="black"/>
<path d="M1270 800C1265.04 800 1260.5 798.192 1257 795.199V900H1250V560C1250 548.954 1258.95 540 1270 540H1300V547H1272C1263.72 547 1257 553.716 1257 562V778C1257 786.284 1263.72 793 1272 793H1300V800H1270Z" fill="black"/>
<path fill-rule="evenodd" clip-rule="evenodd" d="M620.121 583.942C618.95 582.77 618.95 580.871 620.121 579.699L647.698 552.122C648.87 550.95 650.77 550.95 651.941 552.122L669.819 570H740C748.284 570 755 576.716 755 585V625C755 633.284 748.284 640 740 640H646C637.716 640 631 633.284 631 625V594.82L620.121 583.942ZM638 623V601.82L661.841 625.661C663.012 626.833 664.912 626.833 666.083 625.661L693.66 598.084C694.832 596.912 694.832 595.013 693.66 593.841L676.819 577H738C743.523 577 748 581.477 748 587V623C748 628.523 743.523 633 738 633H648C642.477 633 638 628.523 638 623ZM685.882 595.962L663.962 617.883L627.899 581.82L649.82 559.9L685.882 595.962Z" fill="black"/>
<path d="M0 900H1300V1000H0V900Z" fill="black"/>
</svg>
